app/assets/images/heroicons/mini/hand-thumb-down.svg

<svg width="20" height="20" viewBox="0 0 20 20" fill="none" xmlns="http://www.w3.org/2000/svg">
<path d="M18.905 12.75C18.905 13.4404 18.3454 14 17.655 14C16.9647 14 16.405 13.4404 16.405 12.75L16.405 5.25C16.405 4.55964 16.9647 4 17.655 4C18.3454 4 18.905 4.55964 18.905 5.25L18.905 12.75Z" fill="#0F172A"/>
<path d="M8.90503 17L8.90503 18.2998C8.90503 18.5676 8.76529 18.8259 8.51009 18.9068C8.31921 18.9674 8.11593 19 7.90503 19C6.80046 19 5.90503 18.1046 5.90503 17C5.90503 16.005 6.08669 15.0524 6.41866 14.1735C6.62278 13.6332 6.25262 13 5.67499 13L3.15503 13C1.91239 13 0.893941 11.9904 1.00882 10.7531C1.20192 8.67339 1.66037 6.67064 2.35 4.77906C2.75159 3.67752 3.83273 3 5.00519 3L8.19683 3C8.66256 3 9.1219 3.10843 9.53847 3.31672L12.2716 4.68328C12.6882 4.89156 13.1475 5 13.6132 5L14.905 5L14.905 12L13.9418 12C13.2574 12 12.684 12.4825 12.3296 13.0681C11.8412 13.8752 11.0754 14.4958 10.1644 14.7977C9.73164 14.9412 9.31081 15.184 9.15255 15.6116C8.99247 16.0441 8.90503 16.5119 8.90503 17Z" fill="#0F172A"/>
</svg>

<svg xmlns="http://www.w3.org/2000/svg" viewBox="0 0 20 20" fill="currentColor" aria-hidden="true" data-slot="icon">
  <path d="M18.905 12.75a1.25 1.25 0 1 1-2.5 0v-7.5a1.25 1.25 0 0 1 2.5 0v7.5ZM8.905 17v1.3c0 .268-.14.526-.395.607A2 2 0 0 1 5.905 17c0-.995.182-1.948.514-2.826.204-.54-.166-1.174-.744-1.174h-2.52c-1.243 0-2.261-1.01-2.146-2.247.193-2.08.651-4.082 1.341-5.974C2.752 3.678 3.833 3 5.005 3h3.192a3 3 0 0 1 1.341.317l2.734 1.366A3 3 0 0 0 13.613 5h1.292v7h-.963c-.685 0-1.258.482-1.612 1.068a4.01 4.01 0 0 1-2.166 1.73c-.432.143-.853.386-1.011.814-.16.432-.248.9-.248 1.388Z"/>
</svg>
